X: 159
T: the Devils dead 
%%VWML:Wrights-3753-p80-0
F: http://www.vwml.org/record/Wrights/3753/p80
%R: reel, march
B: Daniel Wright "Wright's Compleat Collection of Celebrated Country Dances" 1740 p.80
S: http://library.efdss.org/cgi-bin/dancebooks.cgi
Z: 2014 John Chambers <jc:trillian.mit.edu>
N: The first strain has 7 bars.
M: C|
L: 1/8
K: F
%-------------------------
[|\
F2 A4 c2 | f3g f2c2 | f3g fga2 | F2 A4 c2 |\
f3g fgag | f2d2 c2A2 | G4 d4 |]
[|\
F2 A4 c2 | dcBA c2F2 | dcBA c2F2 | dcBA d2G2 |\
F2 A4 c2 | dcBA f3g | agfd cecA | d4 G4 |]
%-------------------------
%%begintext align
%% The 1st Man back to back with the 2d Wo. and
%% turn single, the 1st Wo. and 2d Man do the
%% same; then all four hands across half round,
%% and back again, then cross over and figure
%% in, and cast off in the 2d Cu. place.
%%endtext
%-------------------------
%%sep 2 4 300
T: Windfor Tarras
T: Longways &c.
%R: reel
B: Daniel Wright "Wright's Compleat Collection of Celebrated Country Dances" 1740 p.80
S: http://library.efdss.org/cgi-bin/dancebooks.cgi
Z: 2014 John Chambers <jc:trillian.mit.edu>
N: The "Repeat" presumably means from the ":S:" symbol.
M: C|
L: 1/8
K: Dm
%-------------------------
|:\
d2Af e3A | dfed ^c3=B |\
Ad Gd Fd Ed | ^cde^c d4 :|\
a2 f/g/a g3g | af f/g/a g3f |
eg dg cg Bg | Af ge f4 |\
af fg b3a | gfed ^c3"^:S:"=B |\
Ad Gd Fd Ed | Dd e^c d4 |]
%-------------------------
%%center The first strain twice, and the last but once and Repeat. %%begintext align
%% All four meet and turn single, then hands quite
%% round .| lead to the Wall and back again, then back
%% to back with your partners :| the 1st Man change
%% places with the 2d Wo. and the 2d Man with the 1st Wo.
%% the two We. lead thro' the two Men. the 2d Cu. being in
%% the 1st Cu. place improper, each Cu. take hands &
%% meet, then fall back again, the 2d Cu. turn single %% off into their own places, the 1st Cu. turn single %% at the same time up into their own place, the 1st %% Man draw off his partner at the repeat .| %%endtext
%------------------------- %%sep 2 4 300
